X:155
T:Polska efter Bruun
R:sl\"angpolska
H:efter Johan Jacob Bruun, S\"arsl\"ov
A:Sk{\aa}ne
Z:id:hn-sp-155
M:3/4
L:1/16
K:Dm
f2e2 (3d2^c2d2 A4 | ^c2d2 (3e2f2g2 a4 | a2b2 a2g2 e2g2 |
f2e2 (3d2^c2d2 A4 | f2e2 (3d2^c2d2 A4 | ^c2d2 (3e2f2g2 a4 |
a2b2 a2g2 e2g2 |1 g2f2 d8 :|2 g2f2 d6a2 |: a4 f2a2 f2a2 |
a2g2 e2g2 e2g2 | f2e2 d2e2 f2g2 | a2^c2 d2e2 f2g2 | a4 f2a2 f2a2 |
a2g2 e2g2 e2g2 | f2e2 d2e2 f2g2 |1 a2^c2 d6a2 :|2 a2^c2 d8 ||

